application/web/upload/images/lock.svg

<svg width="20" height="23" viewBox="0 0 20 23" fill="none" xmlns="http://www.w3.org/2000/svg">
<path fill-rule="evenodd" clip-rule="evenodd" d="M12.7182 0C14.6646 0 16.2557 1.54201 16.3533 3.47903L16.358 3.66768V7.43645C18.4219 7.77152 20 9.5762 20 11.7499V18.6309C20 21.0426 18.0574 23 15.6639 23H4.33598C1.94252 23 0 21.0426 0 18.6309V11.7499C0 9.57616 1.57804 7.77147 3.64197 7.43643V3.66768C3.64197 1.70637 5.17228 0.103066 7.0946 0.00477526L7.28182 0H12.7182ZM14.5147 3.66768V7.38068H5.4853V3.66768L5.49024 3.53271C5.5589 2.59683 6.3357 1.85743 7.28182 1.85743H12.7182L12.8521 1.8624C13.7809 1.93159 14.5147 2.71432 14.5147 3.66768ZM4.33598 9.23811H4.56364H15.4364H15.6639C17.0393 9.23811 18.1567 10.364 18.1567 11.7499V18.6309C18.1567 20.0168 17.0394 21.1426 15.6639 21.1426H4.33598C2.96057 21.1426 1.84333 20.0168 1.84333 18.6309V11.7499C1.84333 10.364 2.96059 9.23811 4.33598 9.23811ZM10 12.3807C8.46074 12.3807 7.21168 13.6393 7.21168 15.1903C7.21168 16.7414 8.46074 18 10 18C11.5393 18 12.7883 16.7414 12.7883 15.1903C12.7883 13.6393 11.5393 12.3807 10 12.3807ZM10 14.2381C10.5212 14.2381 10.945 14.6651 10.945 15.1903C10.945 15.7155 10.5212 16.1426 10 16.1426C9.47878 16.1426 9.05501 15.7155 9.05501 15.1903C9.05501 14.6651 9.47878 14.2381 10 14.2381Z" fill="black"/>
</svg>

<svg width="20" height="23" fill="none" xmlns="http://www.w3.org/2000/svg"><path fill-rule="evenodd" clip-rule="evenodd" d="M12.718 0c1.947 0 3.538 1.542 3.635 3.479l.005.189v3.768A4.362 4.362 0 0120 11.75v6.88c0 2.413-1.943 4.37-4.336 4.37H4.336C1.943 23 0 21.043 0 18.63v-6.88a4.362 4.362 0 013.642-4.314V3.668c0-1.962 1.53-3.565 3.453-3.663L7.282 0h5.436zm1.797 3.668V7.38h-9.03V3.668l.005-.135a1.804 1.804 0 011.792-1.676h5.436l.134.005c.929.07 1.663.852 1.663 1.806zM4.336 9.238h11.328a2.504 2.504 0 012.493 2.512v6.88a2.504 2.504 0 01-2.493 2.513H4.336a2.504 2.504 0 01-2.493-2.512V11.75a2.504 2.504 0 012.493-2.512zM10 12.381c-1.54 0-2.788 1.258-2.788 2.81C7.212 16.74 8.46 18 10 18c1.54 0 2.788-1.259 2.788-2.81 0-1.55-1.249-2.81-2.788-2.81zm0 1.857a.95.95 0 01.945.952.95.95 0 01-.945.953.95.95 0 01-.945-.953.95.95 0 01.945-.952z" fill="#000"/></svg>
